frontend/public/svg/arrows/arrow-single-left.svg

<svg width="60" height="93" viewBox="0 0 60 93" fill="none" xmlns="http://www.w3.org/2000/svg">
<path d="M10.7064 48.1102C17.149 53.632 23.1985 59.3212 29.7705 64.3264C38.6199 71.0663 47.8545 77.3022 56.9606 83.7028C59.4671 85.465 60.3893 87.9492 59.0937 90.1007C57.7619 92.3106 54.8812 92.8397 52.5066 91.0623C40.8894 82.3658 29.2283 73.7159 17.7673 64.8127C12.7745 60.9344 8.23591 56.4772 3.4663 52.3075C-0.143558 49.1571 -0.122472 46.0926 3.55171 43.0531C16.0899 32.683 28.6195 22.303 41.1402 11.9132C45.2489 8.48711 49.1474 4.8116 53.2534 1.37829C54.2138 0.544365 55.4274 0.0587681 56.6979 0C58.5672 0.0656338 59.2918 2.26633 58.0047 4.03385C56.7172 5.79958 55.2582 7.4337 53.6492 8.9124C40.2941 21.1724 26.9112 33.4021 13.5004 45.6017C12.703 46.3309 11.8937 47.0457 10.7064 48.1102Z" fill="black"/>
</svg>

<svg xmlns="http://www.w3.org/2000/svg" width="60" height="93" fill="none" viewBox="0 0 60 93"><path fill="#000" d="M10.706 48.11C17.15 53.632 23.2 59.321 29.77 64.326c8.85 6.74 18.085 12.976 27.19 19.377 2.507 1.762 3.43 4.246 2.134 6.398-1.332 2.21-4.213 2.739-6.587.961-11.618-8.696-23.279-17.346-34.74-26.25-4.992-3.878-9.531-8.335-14.3-12.504-3.61-3.15-3.59-6.215.085-9.255Q22.36 27.498 41.14 11.913c4.109-3.426 8.007-7.101 12.113-10.535A5.65 5.65 0 0 1 56.698 0c1.87.066 2.594 2.266 1.307 4.034a33 33 0 0 1-4.356 4.878A12001 12001 0 0 1 13.5 45.602c-.797.729-1.606 1.444-2.794 2.508"/></svg>
